src/components/00-materials/images-raw/Thumb.svg

<svg width="96" height="96" viewBox="0 0 96 96" fill="none" xmlns="http://www.w3.org/2000/svg">
<path d="M35.21 40H44.12C53.91 40 53.57 30.55 53.57 30.55V24.39C53.57 23.2257 54.0325 22.1091 54.8558 21.2858C55.6791 20.4625 56.7957 20 57.96 20C59.1243 20 60.2409 20.4625 61.0642 21.2858C61.8875 22.1091 62.35 23.2257 62.35 24.39V40.86H72C74 40.86 75.65 42.57 75.84 47.78C75.8698 49.1546 75.4942 50.5075 74.76 51.67C75.5625 52.5262 76.0123 53.6537 76.0197 54.8272C76.0272 56.0006 75.5916 57.1337 74.8 58C74.5791 58.2741 74.3311 58.5254 74.06 58.75C74.7135 59.6262 75.0463 60.7003 75.0026 61.7925C74.9589 62.8847 74.5414 63.9288 73.82 64.75C73.578 65.0436 73.3066 65.3117 73.01 65.55C73.2898 66.4528 73.3048 67.417 73.0531 68.3281C72.8014 69.2391 72.2936 70.0589 71.59 70.69C70.76 71.49 70.04 72.58 66.92 72.58H35L35.21 40ZM20 37H35V76H20V37Z" stroke="#00008F" stroke-width="2" stroke-linecap="round" stroke-linejoin="round"/>
</svg>

<svg width="96" height="96" viewBox="0 0 96 96" fill="none" xmlns="http://www.w3.org/2000/svg"><path d="M35.21 40h8.91c9.79 0 9.45-9.45 9.45-9.45v-6.16a4.39 4.39 0 118.78 0v16.47H72c2 0 3.65 1.71 3.84 6.92a7 7 0 01-1.08 3.89A4.66 4.66 0 0174.8 58c-.22.274-.469.525-.74.75a4.77 4.77 0 01-.24 6 5.574 5.574 0 01-.81.8 4.94 4.94 0 01-1.42 5.14c-.83.8-1.55 1.89-4.67 1.89H35L35.21 40zM20 37h15v39H20V37z" stroke="#00008F" stroke-width="2" stroke-linecap="round" stroke-linejoin="round"/></svg>
